app/assets/images/oc-logo.svg

<svg width="3196" height="420" viewBox="0 0 3196 420" fill="none" xmlns="http://www.w3.org/2000/svg">
<path fill-rule="evenodd" clip-rule="evenodd" d="M242.109 127.252C257.015 148.747 265.751 174.852 265.751 203C265.751 231.148 257.015 257.253 242.109 278.748L207.689 244.296C214.448 232.054 218.295 217.977 218.295 203C218.295 188.023 214.448 173.946 207.689 161.704L242.109 127.252ZM208.553 93.664L174.133 128.116C161.902 121.351 147.838 117.5 132.875 117.5C85.6992 117.5 47.4555 155.78 47.4555 203C47.4555 250.22 85.6992 288.5 132.875 288.5C147.838 288.5 161.902 284.649 174.133 277.884L208.553 312.336C187.078 327.256 160.997 336 132.875 336C59.4903 336 0 276.454 0 203C0 129.546 59.4903 70 132.875 70C160.997 70 187.078 78.7441 208.553 93.664Z" fill="black"/>
<path fill-rule="evenodd" clip-rule="evenodd" d="M242.109 127.251C257.015 148.747 265.75 174.852 265.75 203C265.75 231.148 257.015 257.253 242.109 278.748L207.689 244.296C214.448 232.054 218.295 217.977 218.295 203C218.295 188.023 214.448 173.946 207.689 161.704L242.109 127.251Z" fill="black"/>
<path fill-rule="evenodd" clip-rule="evenodd" d="M774.173 95.1997C748.298 95.1997 723.821 105 705.638 120.4V104.3C705.638 100.1 702.141 97.2997 698.644 97.2997H674.867C670.671 97.2997 667.873 100.8 667.873 104.3V410.2C667.873 413.7 670.671 417.2 674.867 417.2H699.344C702.84 417.2 706.337 414.4 706.337 410.2V282.1C724.52 297.5 748.997 307.3 774.873 307.3C833.618 307.3 881.173 259.7 881.173 200.9C879.774 142.1 832.219 95.1997 774.173 95.1997ZM774.173 268.8C736.409 268.8 706.337 238 706.337 200.9C706.337 163.1 737.108 133 774.173 133C811.938 133 842.01 163.8 842.01 200.9C842.01 238.7 811.239 268.8 774.173 268.8Z" fill="black"/>
<path fill-rule="evenodd" clip-rule="evenodd" d="M1235.04 95.1997C1209.16 95.1997 1185.39 104.3 1167.2 119.7V110.6C1167.2 102.9 1160.91 96.5997 1153.22 96.5997H1142.73C1135.03 96.5997 1128.74 102.9 1128.74 110.6V294.7C1128.74 300.3 1133.64 305.2 1139.23 305.2H1156.71C1162.31 305.2 1167.2 300.3 1167.2 294.7V207.2C1167.2 169.4 1197.98 133 1235.04 133C1259.52 133 1302.88 146.3 1302.88 207.2V294.7C1302.88 300.3 1307.77 305.2 1313.37 305.2H1330.85C1336.45 305.2 1341.34 300.3 1341.34 294.7V206.5C1341.34 114.1 1268.61 95.1997 1235.04 95.1997Z" fill="black"/>
<path fill-rule="evenodd" clip-rule="evenodd" d="M1106.36 178.5C1095.87 128.8 1050.41 92.4 997.264 95.2C944.114 98 900.755 140 897.258 193.2C893.062 255.5 942.016 307.3 1002.86 307.3C1044.12 307.3 1079.79 284.2 1097.27 249.9C1100.07 245 1096.57 238.7 1090.98 237.3L1070 233.1C1066.5 232.4 1063 233.8 1060.9 237.3C1049.02 256.2 1027.34 269.5 1003.56 269.5C982.578 269.5 963.695 259.7 951.107 245L1071.39 194.6L1106.36 178.5ZM935.722 209.3C935.722 206.5 935.022 203.7 935.022 200.9C935.022 163.1 965.794 133 1002.86 133C1023.84 133 1043.42 142.8 1055.31 158.2L935.722 209.3Z" fill="black"/>
<path fill-rule="evenodd" clip-rule="evenodd" d="M540.593 93.7998C481.848 93.7998 434.292 141.4 434.292 200.2C434.292 259 481.848 306.6 540.593 306.6C599.337 306.6 646.893 259 646.893 200.2C646.893 141.4 599.337 93.7998 540.593 93.7998ZM540.593 268.1C502.828 268.1 472.756 237.3 472.756 200.2C472.756 162.4 503.527 132.3 540.593 132.3C578.357 132.3 608.429 163.1 608.429 200.2C609.128 237.3 578.357 268.1 540.593 268.1Z" fill="black"/>
<path fill-rule="evenodd" clip-rule="evenodd" d="M1809.2 93.1001C1750.46 93.1001 1702.9 140.7 1702.9 199.5C1702.9 258.3 1750.46 305.9 1809.2 305.9C1867.95 305.9 1915.5 258.3 1915.5 199.5C1915.5 140.7 1867.95 93.1001 1809.2 93.1001ZM1809.2 267.4C1771.44 267.4 1741.37 236.6 1741.37 199.5C1741.37 161.7 1772.14 131.6 1809.2 131.6C1846.97 131.6 1877.04 162.4 1877.04 199.5C1877.04 236.6 1846.97 267.4 1809.2 267.4Z" fill="black"/>
<path fill-rule="evenodd" clip-rule="evenodd" d="M2731.64 30.1001H2709.96C2705.06 30.1001 2701.56 33.6001 2701.56 38.5001V60.2001C2701.56 65.1001 2705.06 68.6001 2709.96 68.6001H2731.64C2736.53 68.6001 2740.03 65.1001 2740.03 60.2001V38.5001C2740.03 33.6001 2735.83 30.1001 2731.64 30.1001Z" fill="#515F71"/>
<path fill-rule="evenodd" clip-rule="evenodd" d="M3178.52 235.9L3153.34 231C3150.54 230.3 3147.75 231.7 3146.35 234.5C3134.46 254.1 3112.78 267.4 3088.3 267.4C3067.32 267.4 3048.44 257.6 3035.85 242.9L3156.14 192.5L3192.5 177.1C3182.01 127.4 3136.56 91.0001 3083.41 93.8001C3030.26 96.6001 2986.9 139.3 2983.4 192.5C2979.2 254.8 3028.16 306.6 3089 306.6C3130.96 306.6 3167.33 282.1 3184.11 247.1C3185.51 241.5 3182.71 236.6 3178.52 235.9ZM3019.77 198.8C3019.77 161 3050.54 130.9 3087.6 130.9C3108.58 130.9 3128.16 140.7 3140.05 156.1L3019.77 207.2V198.8Z" fill="black"/>
<path fill-rule="evenodd" clip-rule="evenodd" d="M2321.82 176.4C2311.33 126.7 2265.87 90.2999 2212.72 93.0999C2159.57 95.8999 2116.21 138.6 2112.72 191.8C2108.52 254.1 2157.47 305.9 2218.32 305.9C2260.28 305.9 2296.64 281.4 2314.13 245.7C2316.23 241.5 2313.43 236.6 2309.23 235.9L2284.06 231C2281.26 230.3 2278.46 231.7 2277.06 234.5C2265.17 254.1 2243.49 267.4 2219.02 267.4C2198.04 267.4 2179.15 257.6 2166.57 242.9L2286.85 192.5L2321.82 176.4ZM2150.48 207.2C2150.48 204.4 2149.78 201.6 2149.78 198.8C2149.78 161 2180.55 130.9 2217.62 130.9C2238.6 130.9 2258.18 140.7 2270.07 156.1L2150.48 207.2Z" fill="black"/>
<path fill-rule="evenodd" clip-rule="evenodd" d="M1980.54 4.8999H1955.36C1951.87 4.8999 1949.07 7.6999 1949.07 11.1999V296.1C1949.07 299.6 1951.87 303.1 1956.06 303.1H1980.54C1984.04 303.1 1987.53 300.3 1987.53 296.1V11.1999C1987.53 7.6999 1984.04 4.8999 1980.54 4.8999Z" fill="black"/>
<path fill-rule="evenodd" clip-rule="evenodd" d="M2066.56 4.8999H2041.38C2037.89 4.8999 2035.09 7.6999 2035.09 11.1999V296.1C2035.09 299.6 2037.89 303.1 2042.08 303.1H2066.56C2070.06 303.1 2073.55 300.3 2073.55 296.1V11.1999C2072.85 7.6999 2070.06 4.8999 2066.56 4.8999Z" fill="black"/>
<path fill-rule="evenodd" clip-rule="evenodd" d="M2731.64 93.7998H2709.96C2705.06 93.7998 2701.56 97.2998 2701.56 102.2V295.4C2701.56 300.3 2705.06 303.8 2709.96 303.8H2731.64C2736.53 303.8 2740.03 300.3 2740.03 295.4V101.5C2740.03 97.2998 2735.83 93.7998 2731.64 93.7998Z" fill="black"/>
<path fill-rule="evenodd" clip-rule="evenodd" d="M2660.3 93.7999H2633.03C2630.23 93.7999 2627.43 90.9999 2627.43 88.1999V10.4999C2627.43 7.6999 2624.64 4.8999 2621.84 4.8999H2594.56C2591.77 4.8999 2588.97 7.6999 2588.97 10.4999V88.1999C2588.97 90.9999 2586.17 93.7999 2583.38 93.7999H2556.1C2553.3 93.7999 2550.51 96.5999 2550.51 99.3999V126C2550.51 128.8 2553.3 131.6 2556.1 131.6H2583.38C2586.17 131.6 2588.97 134.4 2588.97 137.2V296.1C2588.97 300.3 2592.47 303.1 2595.96 303.1H2619.74C2623.94 303.1 2626.73 299.6 2626.73 296.1V137.2C2626.73 134.4 2629.53 131.6 2632.33 131.6H2659.6C2662.4 131.6 2665.2 128.8 2665.2 126V98.6999C2665.9 95.8999 2663.8 93.7999 2660.3 93.7999Z" fill="black"/>
<path fill-rule="evenodd" clip-rule="evenodd" d="M2509.24 248.5C2506.45 245.7 2501.55 245.7 2498.75 248.5C2486.17 260.4 2470.08 267.4 2451.2 267.4C2411.34 267.4 2379.17 232.4 2383.36 191.8C2386.86 160.3 2412.74 135.1 2444.21 131.6C2463.79 129.5 2482.67 136.5 2495.96 148.4C2500.15 151.9 2506.45 151.9 2510.64 147.7L2522.53 135.8C2526.73 131.6 2526.73 124.6 2522.53 120.4C2502.25 101.5 2474.28 90.9999 2444.21 93.0999C2390.36 96.5999 2347 141.4 2344.9 196C2342.8 256.2 2391.06 305.2 2451.2 305.2C2479.87 305.2 2506.45 294 2525.33 275.1C2528.13 272.3 2528.13 267.4 2525.33 264.6L2509.24 248.5Z" fill="black"/>
<path fill-rule="evenodd" clip-rule="evenodd" d="M1672.13 248.5C1669.33 245.7 1664.44 245.7 1661.64 248.5C1649.05 260.4 1632.97 267.4 1614.08 267.4C1574.22 267.4 1542.05 232.4 1546.25 191.8C1549.75 160.3 1575.62 135.1 1607.09 131.6C1626.67 129.5 1645.56 136.5 1658.84 148.4C1663.04 151.9 1669.33 151.9 1673.53 147.7L1685.42 135.8C1689.61 131.6 1689.61 124.6 1685.42 120.4C1665.14 101.5 1637.16 90.9999 1607.09 93.0999C1553.24 96.5999 1509.88 141.4 1507.78 196C1505.69 256.2 1553.94 305.2 1614.08 305.2C1642.76 305.2 1669.33 294 1688.22 275.1C1691.01 272.3 1691.01 267.4 1688.22 264.6L1672.13 248.5Z" fill="black"/>
<path fill-rule="evenodd" clip-rule="evenodd" d="M2965.22 95.8999H2930.95C2930.25 95.8999 2929.55 96.5999 2929.55 97.2999L2873.6 261.8C2872.9 263.2 2870.81 263.2 2870.81 261.8L2814.86 97.2999C2814.86 96.5999 2814.16 95.8999 2813.46 95.8999H2779.19C2777.79 95.8999 2777.09 97.2999 2777.79 97.9999L2847.03 301.7C2847.03 302.4 2847.73 303.1 2848.43 303.1H2895.98C2896.68 303.1 2897.38 302.4 2897.38 301.7L2966.62 97.9999C2967.31 97.2999 2966.62 95.8999 2965.22 95.8999Z" fill="black"/>
</svg>

<svg fill="none" height="420" viewBox="0 0 3196 420" width="3196" xmlns="http://www.w3.org/2000/svg"><g clip-rule="evenodd" fill-rule="evenodd"><path d="m242.109 127.252c14.906 21.495 23.642 47.6 23.642 75.748s-8.736 54.253-23.642 75.748l-34.42-34.452c6.759-12.242 10.606-26.319 10.606-41.296s-3.847-29.054-10.606-41.296zm-33.556-33.588-34.42 34.452c-12.231-6.765-26.295-10.616-41.258-10.616-47.1758 0-85.4195 38.28-85.4195 85.5s38.2437 85.5 85.4195 85.5c14.963 0 29.027-3.851 41.258-10.616l34.42 34.452c-21.475 14.92-47.556 23.664-75.678 23.664-73.3847 0-132.875-59.546-132.875-133s59.4903-133 132.875-133c28.122 0 54.203 8.7441 75.678 23.664z" fill="#000"/><path d="m242.109 127.251c14.906 21.496 23.641 47.601 23.641 75.749s-8.735 54.253-23.641 75.748l-34.42-34.452c6.759-12.242 10.606-26.319 10.606-41.296s-3.847-29.054-10.606-41.296z" fill="#000"/><path d="m774.173 95.1997c-25.875 0-50.352 9.8003-68.535 25.2003v-16.1c0-4.2-3.497-7.0003-6.994-7.0003h-23.777c-4.196 0-6.994 3.5003-6.994 7.0003v305.9c0 3.5 2.798 7 6.994 7h24.477c3.496 0 6.993-2.8 6.993-7v-128.1c18.183 15.4 42.66 25.2 68.536 25.2 58.745 0 106.3-47.6 106.3-106.4-1.399-58.8-48.954-105.7003-107-105.7003zm0 173.6003c-37.764 0-67.836-30.8-67.836-67.9 0-37.8 30.771-67.9 67.836-67.9 37.765 0 67.837 30.8 67.837 67.9 0 37.8-30.771 67.9-67.837 67.9z" fill="#000"/><path d="m1235.04 95.1997c-25.88 0-49.65 9.1003-67.84 24.5003v-9.1c0-7.7-6.29-14.0003-13.98-14.0003h-10.49c-7.7 0-13.99 6.3003-13.99 14.0003v184.1c0 5.6 4.9 10.5 10.49 10.5h17.48c5.6 0 10.49-4.9 10.49-10.5v-87.5c0-37.8 30.78-74.2 67.84-74.2 24.48 0 67.84 13.3 67.84 74.2v87.5c0 5.6 4.89 10.5 10.49 10.5h17.48c5.6 0 10.49-4.9 10.49-10.5v-88.2c0-92.4-72.73-111.3003-106.3-111.3003z" fill="#000"/><path d="m1106.36 178.5c-10.49-49.7-55.95-86.1-109.096-83.3-53.15 2.8-96.509 44.8-100.006 98-4.196 62.3 44.758 114.1 105.602 114.1 41.26 0 76.93-23.1 94.41-57.4 2.8-4.9-.7-11.2-6.29-12.6l-20.98-4.2c-3.5-.7-7 .7-9.1 4.2-11.88 18.9-33.56 32.2-57.34 32.2-20.982 0-39.865-9.8-52.453-24.5l120.283-50.4zm-170.638 30.8c0-2.8-.7-5.6-.7-8.4 0-37.8 30.772-67.9 67.838-67.9 20.98 0 40.56 9.8 52.45 25.2z" fill="#000"/><path d="m540.593 93.7998c-58.745 0-106.301 47.6002-106.301 106.4002s47.556 106.4 106.301 106.4c58.744 0 106.3-47.6 106.3-106.4s-47.556-106.4002-106.3-106.4002zm0 174.3002c-37.765 0-67.837-30.8-67.837-67.9 0-37.8 30.771-67.9 67.837-67.9 37.764 0 67.836 30.8 67.836 67.9.699 37.1-30.072 67.9-67.836 67.9z" fill="#000"/><path d="m1809.2 93.1001c-58.74 0-106.3 47.5999-106.3 106.3999s47.56 106.4 106.3 106.4c58.75 0 106.3-47.6 106.3-106.4s-47.55-106.3999-106.3-106.3999zm0 174.2999c-37.76 0-67.83-30.8-67.83-67.9 0-37.8 30.77-67.9 67.83-67.9 37.77 0 67.84 30.8 67.84 67.9s-30.07 67.9-67.84 67.9z" fill="#000"/><path d="m2731.64 30.1001h-21.68c-4.9 0-8.4 3.5-8.4 8.4v21.7c0 4.9 3.5 8.4 8.4 8.4h21.68c4.89 0 8.39-3.5 8.39-8.4v-21.7c0-4.9-4.2-8.4-8.39-8.4z" fill="#515f71"/><g fill="#000"><path d="m3178.52 235.9-25.18-4.9c-2.8-.7-5.59.7-6.99 3.5-11.89 19.6-33.57 32.9-58.05 32.9-20.98 0-39.86-9.8-52.45-24.5l120.29-50.4 36.36-15.4c-10.49-49.7-55.94-86.0999-109.09-83.2999s-96.51 45.4999-100.01 98.6999c-4.2 62.3 44.76 114.1 105.6 114.1 41.96 0 78.33-24.5 95.11-59.5 1.4-5.6-1.4-10.5-5.59-11.2zm-158.75-37.1c0-37.8 30.77-67.9 67.83-67.9 20.98 0 40.56 9.8 52.45 25.2l-120.28 51.1z"/><path d="m2321.82 176.4c-10.49-49.7-55.95-86.1001-109.1-83.3001s-96.51 45.5001-100 98.7001c-4.2 62.3 44.75 114.1 105.6 114.1 41.96 0 78.32-24.5 95.81-60.2 2.1-4.2-.7-9.1-4.9-9.8l-25.17-4.9c-2.8-.7-5.6.7-7 3.5-11.89 19.6-33.57 32.9-58.04 32.9-20.98 0-39.87-9.8-52.45-24.5l120.28-50.4zm-171.34 30.8c0-2.8-.7-5.6-.7-8.4 0-37.8 30.77-67.9 67.84-67.9 20.98 0 40.56 9.8 52.45 25.2z"/><path d="m1980.54 4.8999h-25.18c-3.49 0-6.29 2.8-6.29 6.3v284.9001c0 3.5 2.8 7 6.99 7h24.48c3.5 0 6.99-2.8 6.99-7v-284.9001c0-3.5-3.49-6.3-6.99-6.3z"/><path d="m2066.56 4.8999h-25.18c-3.49 0-6.29 2.8-6.29 6.3v284.9001c0 3.5 2.8 7 6.99 7h24.48c3.5 0 6.99-2.8 6.99-7v-284.9001c-.7-3.5-3.49-6.3-6.99-6.3z"/><path d="m2731.64 93.7998h-21.68c-4.9 0-8.4 3.5-8.4 8.4002v193.2c0 4.9 3.5 8.4 8.4 8.4h21.68c4.89 0 8.39-3.5 8.39-8.4v-193.9c0-4.2002-4.2-7.7002-8.39-7.7002z"/><path d="m2660.3 93.7999h-27.27c-2.8 0-5.6-2.8-5.6-5.6v-77.7c0-2.8-2.79-5.6-5.59-5.6h-27.28c-2.79 0-5.59 2.8-5.59 5.6v77.7c0 2.8-2.8 5.6-5.59 5.6h-27.28c-2.8 0-5.59 2.8-5.59 5.6v26.6001c0 2.8 2.79 5.6 5.59 5.6h27.28c2.79 0 5.59 2.8 5.59 5.6v158.9c0 4.2 3.5 7 6.99 7h23.78c4.2 0 6.99-3.5 6.99-7v-158.9c0-2.8 2.8-5.6 5.6-5.6h27.27c2.8 0 5.6-2.8 5.6-5.6v-27.3001c.7-2.8-1.4-4.9-4.9-4.9z"/><path d="m2509.24 248.5c-2.79-2.8-7.69-2.8-10.49 0-12.58 11.9-28.67 18.9-47.55 18.9-39.86 0-72.03-35-67.84-75.6 3.5-31.5 29.38-56.7 60.85-60.2 19.58-2.1 38.46 4.9 51.75 16.8 4.19 3.5 10.49 3.5 14.68-.7l11.89-11.9c4.2-4.2 4.2-11.2 0-15.4-20.28-18.9-48.25-29.4001-78.32-27.3001-53.85 3.5-97.21 48.3001-99.31 102.9001-2.1 60.2 46.16 109.2 106.3 109.2 28.67 0 55.25-11.2 74.13-30.1 2.8-2.8 2.8-7.7 0-10.5z"/><path d="m1672.13 248.5c-2.8-2.8-7.69-2.8-10.49 0-12.59 11.9-28.67 18.9-47.56 18.9-39.86 0-72.03-35-67.83-75.6 3.5-31.5 29.37-56.7 60.84-60.2 19.58-2.1 38.47 4.9 51.75 16.8 4.2 3.5 10.49 3.5 14.69-.7l11.89-11.9c4.19-4.2 4.19-11.2 0-15.4-20.28-18.9-48.26-29.4001-78.33-27.3001-53.85 3.5-97.21 48.3001-99.31 102.9001-2.09 60.2 46.16 109.2 106.3 109.2 28.68 0 55.25-11.2 74.14-30.1 2.79-2.8 2.79-7.7 0-10.5z"/><path d="m2965.22 95.8999h-34.27c-.7 0-1.4.7-1.4 1.4l-55.95 164.5001c-.7 1.4-2.79 1.4-2.79 0l-55.95-164.5001c0-.7-.7-1.4-1.4-1.4h-34.27c-1.4 0-2.1 1.4-1.4 2.1l69.24 203.7001c0 .7.7 1.4 1.4 1.4h47.55c.7 0 1.4-.7 1.4-1.4l69.24-203.7001c.69-.7 0-2.1-1.4-2.1z"/></g></g></svg>
